Papirus/64x64/mimetypes/application-vnd.oasis.opendocument.formula.svg

<?xml version="1.0" encoding="UTF-8" standalone="no"?>
<svg
   id="_图层_1"
   data-name="图层_1"
   version="1.1"
   viewBox="0 0 128 128"
   width="64"
   height="64"
   sodipodi:docname="application-vnd.oasis.opendocument.formula.svg"
   xml:space="preserve"
   inkscape:version="1.4 (e7c3feb100, 2024-10-09)"
   xmlns:inkscape="http://www.inkscape.org/namespaces/inkscape"
   xmlns:sodipodi="http://sodipodi.sourceforge.net/DTD/sodipodi-0.dtd"
   xmlns="http://www.w3.org/2000/svg"
   xmlns:svg="http://www.w3.org/2000/svg"><sodipodi:namedview
     id="namedview3"
     pagecolor="#505050"
     bordercolor="#eeeeee"
     borderopacity="1"
     inkscape:showpageshadow="0"
     inkscape:pageopacity="0"
     inkscape:pagecheckerboard="0"
     inkscape:deskcolor="#505050"
     inkscape:zoom="10.6875"
     inkscape:cx="32"
     inkscape:cy="41.169591"
     inkscape:window-width="1920"
     inkscape:window-height="939"
     inkscape:window-x="0"
     inkscape:window-y="34"
     inkscape:window-maximized="1"
     inkscape:current-layer="_图层_1" /><!-- Generator: Adobe Illustrator 29.0.1, SVG Export Plug-In . SVG Version: 2.1.0 Build 192)  --><defs
     id="defs1"><style
       id="style1">
      .st0 {
        fill: #0071e9;
      }

      .st1 {
        fill: #fff;
      }

      .st2 {
        fill: #5aaaff;
        isolation: isolate;
        opacity: .5;
      }
    </style></defs><path
     class="st0"
     d="M18.2,0c-5.6,0-10.2,4.6-10.2,10.2v107.6c0,5.6,4.6,10.2,10.2,10.2h91.6c5.6,0,10.2-4.6,10.2-10.2V40.6L82.2,0H18.2Z"
     id="path1"
     style="fill:#636e73;fill-opacity:1" /><path
     class="st2"
     d="m 82.761404,2.619883 v 29.2 c 0,3.2 2.145542,11.6 11.89801,11.6 h 24.966316 z"
     id="path2"
     style="fill:#4f585c;fill-opacity:1;stroke-width:0.987546" /><path
     class="st2"
     d="M 82.116964,0.02339171 V 29.223392 c 0,3.2 2.2,11.6 12.2,11.6 h 25.599996 z"
     id="path2-3"
     style="opacity:1;isolation:isolate;fill:#909b9f;fill-opacity:1" /><g
     id="g3"
     transform="matrix(2.5486443,0,0,2.2921925,-17.650186,-9.0225711)"><path
       style="opacity:0.2"
       d="M 31.880859,31 27.519531,46.314453 24.291016,38 H 18 v 3 h 4.453125 l 4.371094,11 h 1.929687 l 5.177735,-18 h 8.958984 v -3 z m 2.5625,8 4.763672,6.197266 L 34,52 h 2.595703 L 40.498047,46.894531 44.400391,52 H 47 L 41.898438,45.328125 46.748047,39 H 44.148438 L 40.595703,43.632812 37.039062,39 Z"
       id="path6" /><path
       style="fill:#ffffff"
       d="M 31.880859,30 27.519531,45.314453 24.291016,37 H 18 v 3 h 4.453125 l 4.371094,11 h 1.929687 l 5.177735,-18 h 8.958984 v -3 z m 2.5625,8 4.763672,6.197266 L 34,51 h 2.595703 L 40.498047,45.894531 44.400391,51 H 47 L 41.898438,44.328125 46.748047,38 H 44.148438 L 40.595703,42.632812 37.039062,38 Z"
       id="path7" /></g></svg>

<svg xmlns="http://www.w3.org/2000/svg" width="64" height="64" version="1.1">
 <path style="opacity:0.2" d="M 12.75,5 C 11.2265,5 10,6.2488 10,7.8 v 50.4 c 0,1.55008 1.2265,2.8 2.75,2.8 h 38.5 C 52.7724,61 54,59.75008 54,58.2 V 23 L 40,19 36,5 Z"/>
 <path style="fill:#636e73" d="M 12.75,4 C 11.2265,4 10,5.2488 10,6.8 v 50.4 c 0,1.55008 1.2265,2.8 2.75,2.8 h 38.5 C 52.7724,60 54,58.75008 54,57.2 V 22 L 40,18 36,4 Z"/>
 <path style="opacity:0.2" d="M 54,23 36,5 V 20.1875 C 36,21.74675 37.2555,23 38.8125,23 Z"/>
 <path style="fill:#909b9f" d="M 54,22 36,4 V 19.1875 C 36,20.74675 37.2555,22 38.8125,22 Z"/>
 <path style="opacity:0.1;fill:#ffffff" d="M 12.75 4 C 11.2265 4 10 5.2495812 10 6.8007812 L 10 7.8007812 C 10 6.2495813 11.2265 5 12.75 5 L 36 5 L 36 4 L 12.75 4 z"/>
 <path style="opacity:0.2" d="M 31.880859,31 27.519531,46.314453 24.291016,38 H 18 v 3 h 4.453125 l 4.371094,11 h 1.929687 l 5.177735,-18 h 8.958984 v -3 z m 2.5625,8 4.763672,6.197266 L 34,52 h 2.595703 L 40.498047,46.894531 44.400391,52 H 47 L 41.898438,45.328125 46.748047,39 H 44.148438 L 40.595703,43.632812 37.039062,39 Z"/>
 <path style="fill:#ffffff" d="M 31.880859 30 L 27.519531 45.314453 L 24.291016 37 L 18 37 L 18 40 L 22.453125 40 L 26.824219 51 L 28.753906 51 L 33.931641 33 L 42.890625 33 L 42.890625 30 L 31.880859 30 z M 34.443359 38 L 39.207031 44.197266 L 34 51 L 36.595703 51 L 40.498047 45.894531 L 44.400391 51 L 47 51 L 41.898438 44.328125 L 46.748047 38 L 44.148438 38 L 40.595703 42.632812 L 37.039062 38 L 34.443359 38 z"/>
</svg>
